!!!OTL: Die schoene Magdalene.
!!!ARE: Europa, Mitteleuropa, Deutschland
!!!SCT: A0054
!!!TXL: @@GMH
!!!YEM: Copyright 1995, estate of Helmut Schaffrath.
**kern	**text
*M6/2	*
*met(C|3)	*
*clefC3	*
*k[b-]	*
*F:ion	*
!LO:TX:a:t=jon.	!
{2F	Wär
=1	=1
1c	ich
2c	ein
1c	wilder
2c	.
=2	=2
1.d	fal-
1d}	-cke,
{2f	wölt
=3	=3
1e	ich
2d	mich
1c	ſchwingen
2B-	.
=4	=4
[1.A	auf,
1A]}	.
!LO:TX:a:t=NB.	!
{2A	ich
=5	=5
1c	wölt
2B-	mich
1A	ni-
2G	-der-
=6	=6
1.F	-laſ-
1D}	-ſen
{4F\	für
4F\	eins
=7	=7
1G	rei-
2B-	-chen
1A	bür-
2G	-gers
=8	=8
[1.F/ll	haus.
1Fyy]}	-
==	==
!!!GTL: Balladen und Romanzen (erzählende Volkslieder)
!!!AGN: Romanze, Ballade, Lied
!! Melodie: Schmeltzel 1544 Quodlibet No. 19, dritte und vierte Zeile
!!    von Boehme ergaenzt. (Vgl.A0065 und A0066, diese Angabe kann nicht
!!    stimmen!)
!!!ONB: ESAC (Essen Associative Code) Database: ALTDEU
!!!AMT: compound duple
!!!AIN: vox
!!!EED: Helmut Schaffrath
!!!EEV: 1.0
!!!RDF**kern: l = terminal long
!!!AMD: Ionian
!!!URL-scan: https://rosdok.uni-rostock.de/mcrviewer/recordIdentifier/rosdok_ppn738218359/iview2/phys_0210.iview2?x=-425.8853427895981&y=249.2089834694052&scale=0.4823261117445838&rotation=0&layout=singlePageLayout&logicalDiv=log_0007
!!!ENC: Anna Maria Matuszewska
!!!EEV: 2024/19/02
*-	*-
